img/cup.svg

<svg width="234" height="241" viewBox="0 0 234 241" fill="none" xmlns="http://www.w3.org/2000/svg">
<g clip-path="url(#clip0)">
<path d="M103.408 180.75H81.5961C73.5872 180.75 67.0859 187.245 67.0859 195.247V211.345H166.914V195.247C166.914 187.245 160.413 180.75 152.404 180.75H130.591H103.408Z" fill="#F9AC30"/>
<path d="M227.781 33.0429C220.291 21.3224 207.147 14.8267 190.799 14.8267H190.375H43.6717H43.2477C26.9002 14.8267 13.7562 21.2753 6.26561 33.0429C-1.88458 45.7519 -2.07303 62.556 5.65316 79.2188C19.8807 109.815 64.7774 120.029 66.6618 120.452L71.0431 121.394H162.957L167.338 120.452C169.222 120.029 214.119 109.815 228.347 79.2188C236.12 62.556 235.884 45.7519 227.781 33.0429ZM214.92 73.0056C209.219 85.2909 195.887 93.5753 185.711 98.3765C181.518 100.353 177.514 101.907 174.122 103.083H59.8778C56.4859 101.907 52.4814 100.353 48.2886 98.3765C38.1126 93.5753 24.7802 85.2909 19.0798 73.0056C13.5207 61.0497 13.3794 49.3763 18.7029 41.0448C23.414 33.7019 32.1295 29.6538 43.2477 29.6538H43.6717H190.328H190.752C201.87 29.6538 210.586 33.7019 215.25 40.9978C220.62 49.3763 220.479 61.0026 214.92 73.0056Z" fill="#DD8D19"/>
<path d="M127.388 180.75V166.393C127.388 156.038 132.759 146.388 141.663 141.163C170.071 124.5 190.375 79.7837 190.375 27.2532V-0.000488281H43.6719V27.2062C43.6719 79.7366 64.0238 124.453 92.3846 141.116C101.289 146.341 106.659 156.038 106.659 166.346V180.702L118.531 192.988L127.388 180.75Z" fill="#F9AC30"/>
<path d="M112.077 166.346V180.702H106.659V166.346C106.659 155.991 101.289 146.341 92.3846 141.116C63.9767 124.453 43.6719 79.7366 43.6719 27.2062V-0.000488281H81.926V27.2062C81.926 79.7366 91.6779 124.453 105.246 141.116C109.486 146.341 112.077 156.038 112.077 166.346Z" fill="#DD8D19"/>
<path d="M113.208 180.75H103.408H81.5961C73.5872 180.75 67.0859 187.245 67.0859 195.247V211.345H98.6974V195.247C98.6974 187.245 105.199 180.75 113.208 180.75Z" fill="#DD8D19"/>
<path d="M99.6394 203.438H61.5266C56.9569 203.438 53.2822 207.109 53.2822 211.675V241H180.764V211.675C180.764 207.109 177.09 203.438 172.52 203.438H134.407" fill="#4F5B5E"/>
<path d="M71.3731 203.438H61.4798C56.91 203.438 53.2354 207.109 53.2354 211.675V241H63.1286V211.675C63.1286 207.109 66.8504 203.438 71.3731 203.438Z" fill="#3B4547"/>
</g>
<defs>
<clipPath id="clip0">
<rect width="234" height="241" fill="white" transform="translate(0 -0.000488281)"/>
</clipPath>
</defs>
</svg>

<svg width="234" height="241" fill="none" xmlns="http://www.w3.org/2000/svg"><g clip-path="url(#clip0)"><path d="M103.408 180.75H81.596c-8.009 0-14.51 6.495-14.51 14.497v16.098h99.828v-16.098c0-8.002-6.501-14.497-14.51-14.497h-48.996z" fill="#F9AC30"/><path d="M227.781 33.043c-7.49-11.72-20.634-18.216-36.982-18.216H43.248c-16.348 0-29.492 6.448-36.982 18.216-8.15 12.709-8.339 29.513-.613 46.176 14.228 30.596 59.124 40.81 61.009 41.233l4.381.942h91.914l4.381-.942c1.884-.423 46.781-10.637 61.009-41.233 7.773-16.663 7.537-33.467-.566-46.176zM214.92 73.006c-5.701 12.285-19.033 20.57-29.209 25.37a118.072 118.072 0 01-11.589 4.707H59.878a118.064 118.064 0 01-11.59-4.707c-10.175-4.8-23.508-13.085-29.208-25.37-5.56-11.956-5.7-23.63-.377-31.961 4.711-7.343 13.427-11.391 24.545-11.391h147.504c11.118 0 19.834 4.048 24.498 11.344 5.37 8.378 5.229 20.005-.33 32.008z" fill="#DD8D19"/><path d="M127.388 180.75v-14.357c0-10.355 5.371-20.005 14.275-25.23 28.408-16.663 48.712-61.38 48.712-113.91V0H43.672v27.206c0 52.53 20.352 97.247 48.713 113.91 8.904 5.225 14.274 14.922 14.274 25.23v14.356l11.872 12.286 8.857-12.238z" fill="#F9AC30"/><path d="M112.077 166.346v14.356h-5.418v-14.356c0-10.355-5.37-20.005-14.274-25.23-28.408-16.663-48.713-61.38-48.713-113.91V0h38.254v27.206c0 52.53 9.752 97.247 23.32 113.91 4.24 5.225 6.831 14.922 6.831 25.23zm1.131 14.404H81.596c-8.009 0-14.51 6.495-14.51 14.497v16.098h31.611v-16.098c0-8.002 6.502-14.497 14.511-14.497z" fill="#DD8D19"/><path d="M99.64 203.438H61.526a8.22 8.22 0 00-8.245 8.237V241h127.482v-29.325a8.219 8.219 0 00-8.244-8.237h-38.113" fill="#4F5B5E"/><path d="M71.373 203.438H61.48a8.22 8.22 0 00-8.245 8.237V241h9.894v-29.325c0-4.566 3.721-8.237 8.244-8.237z" fill="#3B4547"/></g><defs><clipPath id="clip0"><path fill="#fff" d="M0 0h234v241H0z"/></clipPath></defs></svg>
